symbols/web/format_shapes/materialsymbolsoutlined/format_shapes_wght700fill1_24px.svg

<svg xmlns="http://www.w3.org/2000/svg" height="24" width="24"><path d="M.225 23.775v-7.15h2v-9.25h-2V.225h7.15v2h9.25v-2h7.15v7.15h-2v9.25h2v7.15h-7.15v-2h-9.25v2Zm7.15-5.15h9.25v-2h2v-9.25h-2v-2h-9.25v2h-2v9.25h2ZM8 15.675l2.975-8.725h2.05l3.025 8.725h-2.2l-.575-2H10.7l-.575 2Zm3.1-3.6h1.8l-.85-3.025h-.1Z"/></svg>

<svg xmlns="http://www.w3.org/2000/svg" height="24" width="24"><path d="M0.225 23.775V16.625H2.225V7.375H0.225V0.225H7.375V2.225H16.625V0.225H23.775V7.375H21.775V16.625H23.775V23.775H16.625V21.775H7.375V23.775ZM7.375 18.625H16.625V16.625H18.625V7.375H16.625V5.375H7.375V7.375H5.375V16.625H7.375ZM8 15.675 10.975 6.95H13.025L16.05 15.675H13.85L13.275 13.675H10.7L10.125 15.675ZM11.1 12.075H12.9L12.05 9.05H11.95Z"/></svg>
